X: 42371
T: Welcome Whisky Back Again
R: strathspey
M: 4/4
K: Gminor
K:Bbmaj
|:[B,F]>B B>d c>B c<d|B>F G<B F<D C2|B,>B B>d c>B c<d|B>F G<B F<D B,2:|
d<f f>g f>d c<B|d<f f>g f<d c2|d<f f>g f>d c<d|B>F G<B F<D B,2|
d<f f>g f>d c<B|d<f f>g f<d c2|d<f c<d B>c d>c|B>F G<B F<D B,2||

